.local/share/icons/Gruvbox-Plus-Dark/panel/16/ladi-started.svg

<svg xmlns="http://www.w3.org/2000/svg" width="16" height="16" version="1.1">
 <defs>
  <style id="current-color-scheme" type="text/css">
   .ColorScheme-Text { color:#ebdbb2; } .ColorScheme-Highlight { color:#458588; }
  </style>
 </defs>
 <path style="fill:currentColor" class="ColorScheme-Text" d="m 14.620861,1.002477 c -0.116702,-0.0121 -0.298823,0.01588 -0.636688,0.101557 -0.672535,0.170535 -0.816254,0.224116 -0.808554,0.371076 0.0043,0.08257 0.04943,0.155921 0.167961,0.289048 L 12.849463,2.256321 12.714705,2.121562 c -0.03693,-0.03691 -0.08461,-0.05469 -0.132807,-0.05469 -0.04819,0 -0.09588,0.01777 -0.132805,0.05469 l -0.193351,0.191397 1.445242,1.417899 0.179678,-0.177725 c 0.07386,-0.07382 0.07386,-0.19179 0,-0.265612 L 13.74981,3.156668 14.243926,2.662551 c 0.127802,0.112556 0.198533,0.154019 0.285142,0.164055 0.14146,0.01639 0.175205,-0.152158 0.355452,-0.822225 0.178023,-0.661806 0.13389,-0.70794 -0.02148,-0.863239 -0.0742,-0.07417 -0.125474,-0.126565 -0.242175,-0.138665 z M 11.943258,2.625444 7.8282267,6.740475 9.2597977,8.172046 13.388499,4.043343 Z M 6.5939127,7.002182 c -0.05043,6.4e-5 -0.09997,0.01796 -0.138665,0.05664 l -4.400175,4.39822 c -0.07738,0.07735 -0.07719,0.200179 0,0.277331 l 2.206923,2.206922 c 0.07719,0.07715 0.201899,0.07539 0.279283,-0.002 l 4.398221,-4.396267 c 0.07738,-0.07735 0.07719,-0.202133 0,-0.279284 L 6.7325777,7.05882 c -0.03859,-0.03858 -0.08823,-0.0567 -0.138665,-0.05664 z m -5.050533,5.632535 -0.402324,0.400371 c -0.18807398,0.187983 -0.18807398,0.489718 0,0.677701 l 1.146428,1.146428 c 0.188073,0.187984 0.49158,0.187984 0.679654,0 l 0.400371,-0.400371 z"/>
 <path style="fill:currentColor" class="ColorScheme-Highlight" d="M 10.455346,9.9998787 A 0.44227126,0.47078076 0 0 0 10,10.470389 v 5.058363 a 0.44227126,0.47078076 0 0 0 0.663519,0.40778 l 2.057484,-1.264666 2.057733,-1.264366 a 0.44227126,0.47078076 0 0 0 0,-0.815575 L 12.721003,11.32756 10.663519,10.062684 a 0.44227126,0.47078076 0 0 0 -0.208148,-0.06273 z"/>
</svg>

<svg width="16" height="16" version="1.1" xmlns="http://www.w3.org/2000/svg">
  <defs>
    <style id="current-color-scheme" type="text/css">.ColorScheme-Text { color:#ebdbb2; } .ColorScheme-Highlight { color:#458588; } .ColorScheme-NeutralText { color:#fe8019; } .ColorScheme-PositiveText { color:#689d6a; } .ColorScheme-NegativeText { color:#fb4934; }</style>
  </defs>
  <path class="ColorScheme-Text" d="m14.62 1.002c-0.1167-0.0121-0.2988 0.01588-0.6367 0.1016-0.6725 0.1705-0.8163 0.2241-0.8086 0.3711 0.0043 0.08257 0.04943 0.1559 0.168 0.289l-0.4941 0.4922-0.1348-0.1348c-0.03693-0.03691-0.08461-0.05469-0.1328-0.05469-0.04819 0-0.09588 0.01777-0.1328 0.05469l-0.1934 0.1914 1.445 1.418 0.1797-0.1777c0.07386-0.07382 0.07386-0.1918 0-0.2656l-0.1309-0.1309 0.4941-0.4941c0.1278 0.1126 0.1985 0.154 0.2851 0.1641 0.1415 0.01639 0.1752-0.1522 0.3555-0.8222 0.178-0.6618 0.1339-0.7079-0.02148-0.8632-0.0742-0.07417-0.1255-0.1266-0.2422-0.1387zm-2.678 1.623-4.115 4.115 1.432 1.432 4.129-4.129zm-5.349 4.377c-0.05043 6.4e-5 -0.09997 0.01796-0.1387 0.05664l-4.4 4.398c-0.07738 0.07735-0.07719 0.2002 0 0.2773l2.207 2.207c0.07719 0.07715 0.2019 0.07539 0.2793-2e-3l4.398-4.396c0.07738-0.07735 0.07719-0.2021 0-0.2793l-2.207-2.205c-0.03859-0.03858-0.08823-0.0567-0.1387-0.05664zm-5.051 5.633-0.4023 0.4004c-0.1881 0.188-0.1881 0.4897 0 0.6777l1.146 1.146c0.1881 0.188 0.4916 0.188 0.6797 0l0.4004-0.4004z" fill="currentColor"/>
  <path class="ColorScheme-Text" d="m10.46 10a0.4423 0.4708 0 0 0-0.4553 0.4705v5.058a0.4423 0.4708 0 0 0 0.6635 0.4078l2.057-1.265 2.058-1.264a0.4423 0.4708 0 0 0 0-0.8156l-2.058-1.264-2.057-1.265a0.4423 0.4708 0 0 0-0.2081-0.06273z" fill="currentColor"/>
</svg>
